packages/core/src/svgs/tokens/mono/BTC2.svg

<svg width="24" height="24" viewBox="0 0 24 24" fill="none" xmlns="http://www.w3.org/2000/svg">
<path d="M10.6062 4.29575C10.6592 4.30751 10.7122 4.30751 10.7709 4.29575C10.7945 4.28986 10.8062 4.27221 10.8121 4.24279L11.2004 2.03092C11.2004 2.00738 11.218 1.99561 11.2416 2.0015L13.4005 2.43682C13.4123 2.43682 13.4182 2.4427 13.4241 2.45447L13.4357 2.48388L13.4182 2.66036C13.2965 3.38426 13.173 4.10782 13.0476 4.83107L13.0651 4.84283L14.3241 5.13696C14.3402 5.14117 14.3569 5.14178 14.3731 5.13873C14.3894 5.13568 14.4048 5.12904 14.4183 5.11932C14.4456 5.09943 14.4644 5.07006 14.4711 5.03696L14.8535 2.81331C14.8594 2.78977 14.8712 2.77213 14.8888 2.75448C14.8973 2.74865 14.9069 2.74461 14.9171 2.74258C14.9271 2.74056 14.9375 2.7406 14.9477 2.74272C15.63 2.86037 16.3359 3.02508 17.0478 3.16627C17.089 3.17803 17.1065 3.20156 17.1006 3.24274C16.983 3.97808 16.8536 4.72517 16.7125 5.48404C16.6831 5.64287 16.7243 5.68993 16.8595 5.74877C17.3625 5.95841 17.813 6.27639 18.1791 6.68006C18.5452 7.08372 18.8177 7.56315 18.9773 8.08419C19.0831 8.47832 19.0596 8.83717 19.0537 9.24896C19.0205 9.7583 18.868 10.2526 18.6085 10.692C18.3489 11.1315 17.9895 11.5036 17.5595 11.7785C17.0459 12.121 16.4766 12.3719 15.8771 12.5197C14.7241 12.7962 13.3888 12.9197 12.2181 12.6904C12.0004 12.6433 11.7886 12.6667 11.5769 12.6492C11.0754 12.6042 10.57 12.6652 10.0937 12.8284C9.61737 12.9916 9.18063 13.2533 8.81201 13.5963C8.1855 14.2304 7.74411 15.0238 7.53547 15.8905V15.9494C7.54723 15.9729 7.56488 15.9906 7.58253 15.9963L7.74136 16.0434C9.35327 16.3494 11.3651 16.9023 12.8476 17.0082C14.3241 17.1081 15.3947 15.6434 14.8888 14.1433C14.887 14.1364 14.8866 14.1293 14.8876 14.1221C14.8885 14.115 14.891 14.1083 14.8947 14.1021L14.9124 14.0845L14.93 14.0786C15.9007 14.0197 16.5359 13.7845 17.4007 13.4021C17.5183 13.3433 17.6007 13.455 17.6948 13.5668C18.1945 14.2055 18.4435 15.0046 18.3949 15.814C18.3807 16.5805 18.1278 17.3235 17.6711 17.9394C17.2144 18.5553 16.5771 19.0132 15.8477 19.2494C15.4535 19.373 15.1595 19.4378 14.9652 19.4437C14.7683 19.4516 14.5717 19.4713 14.3771 19.5024C14.3476 19.5024 14.3182 19.5201 14.2947 19.5436C14.2706 19.5676 14.2541 19.5984 14.2476 19.6319L13.8593 21.9261C13.8593 21.9497 13.8418 21.9672 13.824 21.9849C13.8139 21.9921 13.8024 21.9969 13.7901 21.9989C13.7779 22.0009 13.7653 22.0002 13.7535 21.9967L11.6769 21.585C11.6613 21.5847 11.6465 21.5784 11.6357 21.5673C11.6276 21.555 11.6235 21.5408 11.6239 21.5261L11.6416 21.3084C11.7614 20.591 11.879 19.8734 11.9945 19.1554L11.9887 19.1318C11.9839 19.1248 11.978 19.1189 11.971 19.1142C11.9641 19.1086 11.956 19.1045 11.9475 19.1024L10.7297 18.8965C10.7105 18.8924 10.6906 18.8924 10.6714 18.8965C10.6522 18.9005 10.6339 18.9086 10.618 18.92C10.5886 18.9436 10.565 18.9789 10.5591 19.026L10.1944 21.1614C10.1826 21.2437 10.1357 21.279 10.0591 21.2614L8.0002 20.8496C7.98948 20.8474 7.97928 20.8433 7.97018 20.8373C7.96109 20.8313 7.95331 20.8234 7.94725 20.8142C7.93714 20.7942 7.93504 20.7711 7.94138 20.7496L8.31199 18.5965C8.31679 18.5704 8.31265 18.5435 8.30022 18.52C8.29325 18.5082 8.2839 18.4978 8.27277 18.4897C8.26164 18.4816 8.24896 18.476 8.23551 18.4729L5.04122 17.8377C4.95886 17.8259 4.92357 17.7612 4.9471 17.6612C5.10592 16.8199 5.32947 15.9906 5.60007 15.1846C5.87466 14.3578 6.23342 13.5614 6.67071 12.808C7.50605 11.3961 9.05908 10.7432 10.5532 10.6019C10.8886 10.5666 11.2121 10.5255 11.5533 10.5491C12.3004 10.6078 13.0298 10.6843 13.777 10.7784C13.9179 10.7912 14.0596 10.7912 14.2006 10.7784C15.23 10.7079 15.9242 9.83722 15.7301 8.74303C15.5477 7.71946 14.5712 7.50769 13.6475 7.29002C13.0769 7.15472 12.5181 7.03707 11.9651 6.93706C11.8709 6.91941 11.8122 6.96059 11.7945 7.05472L11.4475 9.096C11.4425 9.13 11.4259 9.16123 11.4004 9.18424C11.3878 9.19611 11.3731 9.20533 11.3569 9.2114C11.3407 9.21747 11.3235 9.22023 11.3062 9.21954C10.365 9.17836 9.42383 9.27843 8.52964 9.64313C8.33639 9.72178 8.14225 9.79824 7.94725 9.8725L7.92962 9.86659L7.92373 9.85493V9.83722L8.48847 6.60763C8.5473 6.29585 8.42964 6.06054 8.15904 5.90172C7.87666 5.73111 7.45311 5.69582 7.11781 5.62523C7.10895 5.62235 7.10076 5.61775 7.09369 5.61169C7.08662 5.60563 7.08083 5.59823 7.07663 5.58992C7.06636 5.5743 7.06219 5.55547 7.06486 5.53698L7.3884 3.65453V3.63689L7.40017 3.631C7.40345 3.6284 7.40724 3.62654 7.4113 3.62552C7.41536 3.62451 7.41959 3.62437 7.42369 3.62511C8.48355 3.844 9.54242 4.06755 10.6003 4.29575H10.6062Z" fill="white"/>
</svg>

<svg xmlns="http://www.w3.org/2000/svg" width="24" height="24" fill="none" viewBox="0 0 24 24">
    <path fill="#fff" d="M10.606 4.296a.4.4 0 0 0 .165 0q.033-.01.041-.053L11.2 2.03c0-.024.018-.035.042-.03l2.158.436q.016 0 .024.017l.012.03-.018.176q-.182 1.086-.37 2.171l.017.012 1.26.294a.11.11 0 0 0 .093-.018.14.14 0 0 0 .053-.082l.383-2.224a.12.12 0 0 1 .035-.059.08.08 0 0 1 .059-.011c.682.117 1.388.282 2.1.423q.062.017.053.077a90 90 0 0 1-.389 2.241c-.029.159.012.206.148.265a3.7 3.7 0 0 1 2.117 2.335c.106.394.083.753.077 1.165a3.25 3.25 0 0 1-1.494 2.53 5.3 5.3 0 0 1-1.683.74c-1.153.277-2.488.4-3.659.171-.218-.047-.43-.023-.641-.04a3.6 3.6 0 0 0-2.765.946 4.9 4.9 0 0 0-1.277 2.294v.06q.02.036.048.046l.158.047c1.612.306 3.624.86 5.107.965 1.476.1 2.547-1.365 2.04-2.865a.05.05 0 0 1 .007-.04l.017-.018.018-.006c.97-.06 1.606-.295 2.47-.677.118-.059.2.053.295.165.5.639.749 1.438.7 2.247a3.68 3.68 0 0 1-2.547 3.435q-.592.186-.883.195a5 5 0 0 0-.588.058c-.03 0-.059.018-.082.042a.17.17 0 0 0-.047.088l-.389 2.294c0 .024-.017.041-.035.059a.08.08 0 0 1-.07.012l-2.077-.412a.06.06 0 0 1-.041-.018.1.1 0 0 1-.012-.04l.018-.219q.18-1.076.353-2.153l-.006-.023-.018-.018-.024-.012-1.217-.206a.14.14 0 0 0-.112.024.16.16 0 0 0-.059.106l-.365 2.135q-.018.126-.135.1L8 20.85a.08.08 0 0 1-.053-.035.1.1 0 0 1-.006-.065l.371-2.154a.12.12 0 0 0-.012-.076.1.1 0 0 0-.064-.047l-3.195-.635c-.082-.012-.117-.077-.094-.177.159-.841.382-1.67.653-2.476.275-.827.633-1.624 1.07-2.377.836-1.412 2.39-2.065 3.883-2.206.336-.035.66-.077 1-.053.747.059 1.477.135 2.224.23q.211.018.424 0c1.029-.071 1.723-.942 1.53-2.036-.183-1.024-1.16-1.235-2.083-1.453q-.855-.203-1.683-.353-.143-.025-.17.118l-.348 2.041a.15.15 0 0 1-.09.115.1.1 0 0 1-.05.009c-.942-.042-1.883.058-2.777.423q-.29.118-.583.23l-.017-.006-.006-.012v-.018l.564-3.23c.06-.311-.058-.546-.329-.705-.282-.17-.706-.206-1.041-.277a.07.07 0 0 1-.041-.035.1.1 0 0 1-.012-.053l.323-1.882v-.018L7.4 3.63a.03.03 0 0 1 .024-.006q1.59.329 3.176.67z"/>
</svg>
